X:1
T:Title
%%score { ( 1 3 ) | ( 2 4 ) }
L:1/8
M:4/4
K:Bb
V:1 bass nm="Grand Piano"
V:3 bass 
V:2 bass 
V:4 bass 
V:1
 z4 z2[Q:1/4=94] [F,B,D]>[F,CE] | [B,DF]>[B,DB] [DFB]>[DFB] B>F D>B, | F2 F4 F>G | %3
 [DF]>[DB] [Ec]>[DB] [DF]>[DF] [DG]>[DFB] | A6 A>B | c>B A>G A2 G>F | %6
 [DB]>[DA] [FB]>c d2 [Fd]>[Fd] | c>c F>G [FA]>[FB] [Fc]>[Fd] |[M:3/4] e6 |[M:1/4] e>e | %10
[M:4/4] [Fd]>[Fd] [DB]>[DB] [Fd]2 [Ec]>[DB] | [Ec]>[EB] [FA]>[EG] [DF]2 [DF]>[DF] | %12
 [Fd]>[Fd] A>A B>B [=EG]>[Ec] | [Ec]6[K:bass] z2 | [DF]>[_D=E] [=DF]>[_EG] [DF]2 [DF]>[DF] | %15
[M:9/8] [FB]>[F=B][Gc]- [Gc]/d/ e2- eG>G |[M:4/4] F>F B>B B>A G>A |[M:3/4] B6 |] %18
V:2
 z4 z2 B,,>B,, | B,,>B,, B,,>B,, B,>F, D,>B,, | F,2 F,4 [F,A,E]>[F,A,E] | %3
 [B,,B,]>[B,,F,] [B,,G,]>[B,,F,] [B,,B,]>[B,,B,] [B,,B,]>B,, | [F,CE]6 [F,CE]>[F,G,E] | %5
 [F,A,E]>[F,B,E] [F,CE]>[F,CE] [F,CE]2 [F,B,E]>[F,A,E] | %6
 [B,,B,]>[B,,F,] [D,B,]>[K:treble][F,A,F] [B,F]2[K:bass] [B,,B,]>[B,,B,] | %7
 [F,A,F]>[F,A,F] [F,A,]>[F,B,F] [E,C]>[D,B,] [C,A,]>[B,,B,] |[M:3/4] [F,CF]6 | %9
[M:1/4] [F,CF]>[F,CF] |[M:4/4] [B,,B,]>[B,,B,] [B,,F,]>[B,,F,] [B,,B,]2 [B,,B,]>[B,,B,] | %11
 [E,G,]>[E,G,] [E,B,]>[E,B,] [B,,B,]2 [B,,B,]>[B,,B,] | %12
 [B,,B,]>[B,,B,] [F,CE]>[F,CE] [G,B,D]>[G,B,D] [C,B,]>[C,B,] | %13
 [F,A,]2 F,>F, F,2 [B,,F,B,]>[B,,F,] | [B,,B,]>[B,,B,] [B,,B,]>[B,,B,] [B,,B,]2 [B,,B,]>[B,,B,] | %15
[M:9/8] [D,B,]>[D,_A,][E,G,]- [E,G,]/[K:treble][G,=B,G]/ [CG]2- [CG][K:bass][E,_B,C]>[E,B,C] | %16
[M:4/4] [F,B,D]>[F,B,D] [F,DF]>[F,DF] [F,CE]>[F,CE] [F,CE]>[F,CE] |[M:3/4] z2 G,>G, F,2 |] %18
V:3
 x8 | x8 | x8 | x8 | x8 | x8 | x8 | x8 |[M:3/4] x6 |[M:1/4] x2 |[M:4/4] x8 | x8 | x8 | %13
 z2[K:bass] A,>A, A,2 D>[CE] | x8 |[M:9/8] x9 |[M:4/4] x8 |[M:3/4] [B,D]2 E>E D2 |] %18
V:4
 x8 | x8 | x8 | x8 | x8 | x8 | x7/2[K:treble] x5/2[K:bass] x2 | x8 |[M:3/4] x6 |[M:1/4] x2 | %10
[M:4/4] x8 | x8 | x8 | x8 | x8 |[M:9/8] x7/2[K:treble] x7/2[K:bass] x2 |[M:4/4] x8 |[M:3/4] B,,6 |] %18

